gama.ui.shared/icons_svg/dark/overlays/small.edit.svg

<svg height="16" viewBox="-690.274 -3115.658 16 16" width="16" xmlns="http://www.w3.org/2000/svg"><g fill="none"><path d="m-678.5692-3113.2207 1.89556 1.7692-8.71946 8.8458h-1.8956v-1.8955z" fill="#999"/><g fill="#fff"><path d="m-677.8914-3110.1764-1.251-1.2511 1.251 1.2511-7.5821 7.5821zm-9.4777 5.6866v1.8955zm8.8459-8.8459-7.5822 7.5822zm1.8955 1.8957-.7329-.733.7329.733-.8972.897z"/><path d="m-678.5232-3113.6516c-.0822 0-.1643.0316-.2212.0948l-8.8458 8.8458c-.0569.057-.0948.139-.0948.2212v1.8955c0 .1769.139.3159.3159.3159h1.8956c.0821 0 .16424-.0316.2211-.0946l8.8459-8.846c.1263-.1263.1263-.3222 0-.4486l-1.8956-1.8954c-.0632-.0633-.1453-.095-.2211-.095zm.6318 3.0266-1.4469-1.447.8151-.815 1.4469 1.447zm-9.16175 7.7148v-1.4468l7.26625-7.2664 1.4469 1.447-7.2662 7.2662z"/></g></g></svg>

<?xml version="1.0" encoding="UTF-8" standalone="no"?>
<!DOCTYPE svg PUBLIC "-//W3C//DTD SVG 1.1//EN" "http://www.w3.org/Graphics/SVG/1.1/DTD/svg11.dtd">
<svg xmlns="http://www.w3.org/2000/svg" xmlns:xl="http://www.w3.org/1999/xlink" version="1.1" xmlns:dc="http://purl.org/dc/elements/1.1/" viewBox="-690.2741 -3115.658 16.000008 16.000008" width="16.000008" height="16.000008">
  <defs/>
  <g id="SOURCES" stroke-opacity="1" fill="none" stroke="none" fill-opacity="1" stroke-dasharray="none">
    <title>SOURCES</title>
    <g id="SOURCES_Dark">
      <title>Dark</title>
      <g id="Graphic_11227"/>
      <g id="Graphic_11233">
        <path d="M -678.5692 -3113.2207 L -676.67364 -3111.4515 L -685.3931 -3102.6057 L -687.2887 -3102.6057 L -687.2887 -3104.5012 Z" fill="#999"/>
      </g>
      <g id="Graphic_11232">
        <path d="M -677.8914 -3110.1764 L -679.1424 -3111.4275 L -677.8914 -3110.1764 L -685.4735 -3102.5943 Z M -687.3691 -3104.4898 L -687.3691 -3102.5943 Z M -678.5232 -3113.3357 L -686.1054 -3105.7535 Z M -676.6277 -3111.44 L -677.3606 -3112.173 L -676.6277 -3111.44 L -677.5249 -3110.543 Z" fill="white"/>
      </g>
      <g id="Graphic_11231">
        <path d="M -678.5232 -3113.6516 C -678.6054 -3113.6516 -678.6875 -3113.62 -678.7444 -3113.5568 L -687.5902 -3104.711 C -687.6471 -3104.654 -687.685 -3104.572 -687.685 -3104.4898 L -687.685 -3102.5943 C -687.685 -3102.4174 -687.546 -3102.2784 -687.3691 -3102.2784 L -685.4735 -3102.2784 C -685.3914 -3102.2784 -685.30926 -3102.31 -685.2524 -3102.373 L -676.4065 -3111.219 C -676.2802 -3111.3453 -676.2802 -3111.5412 -676.4065 -3111.6676 L -678.3021 -3113.563 C -678.3653 -3113.6263 -678.4474 -3113.658 -678.5232 -3113.658 Z M -677.8914 -3110.625 L -679.3383 -3112.072 L -678.5232 -3112.887 L -677.0763 -3111.44 Z M -687.05315 -3102.9102 L -687.05315 -3104.357 L -679.7869 -3111.6234 L -678.34 -3110.1764 L -685.6062 -3102.9102 Z" fill="white"/>
      </g>
    </g>
  </g>
</svg>
